src/Assets/Icons/camera-video-off.svg

<svg width="16" height="16" viewBox="0 0 16 16" fill="none" xmlns="http://www.w3.org/2000/svg">
<g clip-path="url(#clip0_264_44999)">
<path fill-rule="evenodd" clip-rule="evenodd" d="M10.961 12.365C11.2462 12.0611 11.4288 11.6753 11.483 11.262L14.593 12.644C14.7452 12.7118 14.912 12.7405 15.0781 12.7275C15.2443 12.7145 15.4045 12.6601 15.5443 12.5694C15.6841 12.4787 15.7991 12.3545 15.8786 12.2081C15.9582 12.0616 15.9999 11.8976 16 11.731V4.26899C15.9999 4.10247 15.9581 3.93862 15.8786 3.79231C15.7991 3.646 15.6843 3.52187 15.5446 3.43118C15.4049 3.34048 15.2449 3.28611 15.0788 3.27298C14.9128 3.25985 14.7462 3.28838 14.594 3.35599L11.483 4.73799C11.4195 4.25708 11.1833 3.81565 10.8185 3.49592C10.4537 3.17618 9.98509 2.99993 9.5 2.99999H4.272L4.986 3.99999H9.5C9.76522 3.99999 10.0196 4.10535 10.2071 4.29288C10.3946 4.48042 10.5 4.73478 10.5 4.99999V11C10.5002 11.1826 10.4504 11.3617 10.356 11.518L10.961 12.365ZM1.428 4.17999C1.29584 4.27205 1.1879 4.39469 1.11338 4.53747C1.03885 4.68025 0.999957 4.83893 1 4.99999V11C1 11.2652 1.10536 11.5196 1.29289 11.7071C1.48043 11.8946 1.73478 12 2 12H7.014L7.728 13H2C1.46957 13 0.960859 12.7893 0.585786 12.4142C0.210714 12.0391 0 11.5304 0 11V4.99999C0 4.32499 0.334 3.72799 0.847 3.36599L1.427 4.17999H1.428ZM15 11.73L11.5 10.175V5.82499L15 4.26899V11.731V11.73ZM10.593 15.29L0.593 1.28999L1.407 0.709991L11.407 14.71L10.593 15.29Z" fill="#E5E7EB"/>
</g>
<defs>
<clipPath id="clip0_264_44999">
<rect width="16" height="16" fill="white"/>
</clipPath>
</defs>
</svg>

<?xml version="1.0" encoding="utf-8"?>
<!-- Generator: Adobe Illustrator 26.0.1, SVG Export Plug-In . SVG Version: 6.00 Build 0)  -->
<svg version="1.1" id="Layer_1" xmlns="http://www.w3.org/2000/svg" xmlns:xlink="http://www.w3.org/1999/xlink" x="0px" y="0px"
	 viewBox="0 0 16 16" style="enable-background:new 0 0 16 16;" xml:space="preserve">
<style type="text/css">
	.st0{fill:none;}
	.st1{fill-rule:evenodd;clip-rule:evenodd;fill:#0F172A;}
</style>
<rect y="0" class="st0" width="16" height="16"/>
<g>
	<path class="st1" d="M11,12.4c0.3-0.3,0.5-0.7,0.5-1.1l3.1,1.4c0.2,0.1,0.3,0.1,0.5,0.1c0.2,0,0.3-0.1,0.5-0.2s0.3-0.2,0.3-0.4
		c0.1-0.1,0.1-0.3,0.1-0.5V4.3c0-0.2,0-0.3-0.1-0.5s-0.2-0.3-0.3-0.4c-0.1-0.1-0.3-0.1-0.5-0.2c-0.2,0-0.3,0-0.5,0.1l-3.1,1.4
		c-0.1-0.5-0.3-0.9-0.7-1.2C10.5,3.2,10,3,9.5,3H4.3L5,4h4.5c0.3,0,0.5,0.1,0.7,0.3c0.2,0.2,0.3,0.4,0.3,0.7v6c0,0.2,0,0.4-0.1,0.5
		L11,12.4z M1.4,4.2C1.3,4.3,1.2,4.4,1.1,4.5C1,4.7,1,4.8,1,5v6c0,0.3,0.1,0.5,0.3,0.7C1.5,11.9,1.7,12,2,12h5l0.7,1H2
		c-0.5,0-1-0.2-1.4-0.6C0.2,12,0,11.5,0,11V5c0-0.7,0.3-1.3,0.8-1.6L1.4,4.2L1.4,4.2z M15,11.7l-3.5-1.6V5.8L15,4.3V11.7L15,11.7z
		 M10.6,15.3l-10-14l0.8-0.6l10,14L10.6,15.3z"/>
</g>
</svg>
